X:1
T:Paddy Lynn’s Delight
R:Reel
M:C|
Z: Contributed 2015-06-23 14:11:14 by Dave Marlatt mrdmarlatt@gmail.com
K:A Dorian
eAAB cBAG|EG (3GAG AGEG|eAAB cBAB|cdeg aged|
eAAB cBAG|EG (3GAG AGEG|cdeg aged|1 cAAG A2 cd:|2cAAG A2 AB|:
c2 ec gcec|c2 eg aged|c2 ec gcec|d2 ed cAGA|
c2ec gcec|cdeg agea|gc'ba gedB|AcBG A4:|

